static/vectors/menu.svg

<svg xmlns="http://www.w3.org/2000/svg" viewBox="0 0 24 16">
  <title>Menu</title>
  <g fill="#181820" fill-rule="nonzero">
    <path d="M14 9H1c-.6 0-1-.4-1-1s.4-1 1-1h13c.6 0 1 .4 1 1s-.4 1-1 1zM23 2H1c-.6 0-1-.4-1-1s.4-1 1-1h22c.6 0 1 .4 1 1s-.4 1-1 1zM23 16H1c-.6 0-1-.4-1-1s.4-1 1-1h22c.6 0 1 .4 1 1s-.4 1-1 1z"/>
  </g>
</svg>

<?xml version="1.0" encoding="UTF-8"?>
<svg width="24px" height="16px" viewBox="0 0 24 16" version="1.1" xmlns="http://www.w3.org/2000/svg" xmlns:xlink="http://www.w3.org/1999/xlink">
    <!-- Generator: Sketch 58 (84663) - https://sketch.com -->
    <title>menu-7</title>
    <desc>Created with Sketch.</desc>
    <g id="Symbols" stroke="none" stroke-width="1" fill="none" fill-rule="evenodd">
        <g id="Menu-Toggle-/-Dark" transform="translate(-20.000000, -24.000000)" fill="#181820" fill-rule="nonzero">
            <g id="Menu-Toggle-/-Dark-/-Desktop">
                <g id="menu-7" transform="translate(20.000000, 24.000000)">
                    <path d="M14,9 L1,9 C0.4,9 0,8.6 0,8 C0,7.4 0.4,7 1,7 L14,7 C14.6,7 15,7.4 15,8 C15,8.6 14.6,9 14,9 Z" id="Path"></path>
                    <path d="M23,2 L1,2 C0.4,2 0,1.6 0,1 C0,0.4 0.4,0 1,0 L23,0 C23.6,0 24,0.4 24,1 C24,1.6 23.6,2 23,2 Z" id="Path"></path>
                    <path d="M23,16 L1,16 C0.4,16 0,15.6 0,15 C0,14.4 0.4,14 1,14 L23,14 C23.6,14 24,14.4 24,15 C24,15.6 23.6,16 23,16 Z" id="Path"></path>
                </g>
            </g>
        </g>
    </g>
</svg>
